src/images_karasa_jaga_svg/cmd/32/showinvalid.svg

<svg height="32" viewBox="0 0 31.999999 31.999999" width="32" xmlns="http://www.w3.org/2000/svg" xmlns:xlink="http://www.w3.org/1999/xlink"><linearGradient id="a" gradientUnits="userSpaceOnUse" x1="95.870972" x2="99.870972" xlink:href="#e" y1="-38.129028" y2="109.87097"/><linearGradient id="b" gradientUnits="userSpaceOnUse" x1="59.870972" x2="59.870972" xlink:href="#f" y1="141.87097" y2="13.870973"/><linearGradient id="c" gradientTransform="matrix(1.0384874 0 0 .91306627 4.332511 8.824573)" gradientUnits="userSpaceOnUse" x1="46.048" x2="46.048" xlink:href="#f" y1="128.01709" y2="16.6203"/><linearGradient id="d" gradientUnits="userSpaceOnUse" x1="121.87097" x2="121.87097" xlink:href="#e" y1="-34.455017" y2="101.92964"/><linearGradient id="e" gradientUnits="userSpaceOnUse" x1="121.87097" x2="121.87097" y1="-34.455017" y2="101.92964"><stop offset="0" stop-color="#fff"/><stop offset="1" stop-color="#555"/></linearGradient><linearGradient id="f" gradientTransform="matrix(1.0384874 0 0 .91306627 4.332511 8.824573)" gradientUnits="userSpaceOnUse" x1="46.048" x2="46.048" y1="128.01709" y2="16.6203"><stop offset="0" stop-color="#c7cdd7"/><stop offset="1" stop-color="#fff"/></linearGradient><g transform="matrix(.25 0 0 .25 -.467743 -.467744)"><path d="m9.870972 25.870972h107.999998v75.999998h-107.999998z" fill="url(#c)"/><path d="m5.8709716 21.870974v4 16 4 16 4 16 4 15.999996 4h4 20.0000004 4 28 4 28 4 19.999998 4v-4-15.999996-4-16-4-16-4-16-4h-4-19.999998-4-28-4-28-4-20.0000004zm4 4h20.0000004v16h-20.0000004zm24.0000004 0h28v16h-28zm32 0h28v16h-28zm32 0h19.999998v16h-19.999998zm-88.0000004 20h20.0000004v16h-20.0000004zm24.0000004 0h28v16h-28zm32 0h28v16h-28zm32 0h19.999998v16h-19.999998zm-88.0000004 20h20.0000004v16h-20.0000004zm24.0000004 0h28v16h-28zm32 0h28v16h-28zm32 0h19.999998v16h-19.999998zm-88.0000004 20h20.0000004v15.999996h-20.0000004zm24.0000004 0h28v15.999996h-28zm32 0h28v15.999996h-28zm32 0h19.999998v15.999996h-19.999998z" fill="url(#d)"/></g><g transform="matrix(.25 0 0 .25 .032257 -.467744)"><path d="m27.871094 41.871094v4l-.000122 35.99988v4h4 60 4v-4l.000122-35.99988v-4h-4-60zm4 4h60l-.000122 35.99988h-60z" fill="url(#a)"/><path d="m31.870972 45.870974v36l60.000122.00012v-36z" fill="url(#b)"/></g><rect fill="#a2a2a2" height="2.000001" rx=".060469" ry=".029227" width="7" x="12" y="13.999999"/><g transform="matrix(.19816971 0 0 .19816971 2.817139 2.817138)"><path d="m64 28.882812c-26.105821.000196-45.689453 16.100992-45.689453 35.388672 0 9.643841 4.859344 18.312428 13.017578 24.623047 8.158234 6.31062 19.612935 10.222559 32.671875 10.222657 26.105819-.000198 45.68945-16.100994 45.68945-35.388672 0-9.64384-4.85934-18.312428-13.017575-24.623047-8.158235-6.31062-19.612936-10.222558-32.671875-10.222657zm0 3.634766c11.42851.000147 21.791559 3.473841 29.335938 9.140625 7.544382 5.666784 12.285002 13.574767 12.285152 22.341797-.00015 8.76703-4.74077 16.675013-12.285152 22.341797-7.544379 5.666784-17.907428 9.140478-29.335938 9.140625-11.42851-.000147-21.791558-3.473841-29.335938-9.140625-7.544379-5.666784-12.285007-13.574767-12.285156-22.341797.000149-8.76703 4.740777-16.675013 12.285156-22.341797 7.54438-5.666784 17.907428-9.140478 29.335938-9.140625z" fill="#b50000"/><ellipse cx="64" cy="64" fill="#8fd0ff" fill-opacity=".261029" rx="41.542519" ry="31.203558"/></g></svg>

<?xml version="1.0" encoding="UTF-8" standalone="no"?>
<svg
   xmlns:dc="http://purl.org/dc/elements/1.1/"
   xmlns:cc="http://creativecommons.org/ns#"
   xmlns:rdf="http://www.w3.org/1999/02/22-rdf-syntax-ns#"
   xmlns:svg="http://www.w3.org/2000/svg"
   xmlns="http://www.w3.org/2000/svg"
   xmlns:xlink="http://www.w3.org/1999/xlink"
   xmlns:sodipodi="http://sodipodi.sourceforge.net/DTD/sodipodi-0.dtd"
   xmlns:inkscape="http://www.inkscape.org/namespaces/inkscape"
   height="127.74194"
   viewBox="0 0 127.74194 127.74194"
   width="127.74194"
   version="1.1"
   id="svg50"
   sodipodi:docname="showinvalid.svg"
   inkscape:version="0.92.3 (unknown)"
   inkscape:export-filename="/home/rizmut/Dokumen/Rizmut/Github/libreoffice-style-karasa-jaga/build/images_karasa_jaga/cmd/32/showinvalid.png"
   inkscape:export-xdpi="24.049999"
   inkscape:export-ydpi="24.049999">
  <metadata
     id="metadata56">
    <rdf:RDF>
      <cc:Work
         rdf:about="">
        <dc:format>image/svg+xml</dc:format>
        <dc:type
           rdf:resource="http://purl.org/dc/dcmitype/StillImage" />
        <dc:title></dc:title>
      </cc:Work>
    </rdf:RDF>
  </metadata>
  <defs
     id="defs54">
    <linearGradient
       id="XMLID_9_"
       gradientUnits="userSpaceOnUse"
       x1="94.343803"
       y1="102.3447"
       x2="86.535599"
       y2="94.536598">
      <stop
         offset="0"
         style="stop-color:#FFFFFF"
         id="stop62" />
      <stop
         offset="1"
         style="stop-color:#555753"
         id="stop64" />
    </linearGradient>
    <linearGradient
       y2="95.292999"
       x2="87.292999"
       y1="103"
       x1="95"
       gradientUnits="userSpaceOnUse"
       id="linearGradient4175">
      <stop
         id="stop4177"
         style="stop-color:#000000;stop-opacity:1"
         offset="0" />
      <stop
         id="stop4179"
         style="stop-color:#393B38"
         offset="1" />
    </linearGradient>
    <linearGradient
       id="XMLID_12_"
       gradientUnits="userSpaceOnUse"
       x1="96"
       y1="104"
       x2="88.000198"
       y2="96.000198">
      <stop
         offset="0"
         style="stop-color:#888A85"
         id="stop83" />
      <stop
         offset="0.0072"
         style="stop-color:#8C8E89"
         id="stop85" />
      <stop
         offset="0.0673"
         style="stop-color:#ABACA9"
         id="stop87" />
      <stop
         offset="0.1347"
         style="stop-color:#C5C6C4"
         id="stop89" />
      <stop
         offset="0.2115"
         style="stop-color:#DBDBDA"
         id="stop91" />
      <stop
         offset="0.3012"
         style="stop-color:#EBEBEB"
         id="stop93" />
      <stop
         offset="0.4122"
         style="stop-color:#F7F7F6"
         id="stop95" />
      <stop
         offset="0.5679"
         style="stop-color:#FDFDFD"
         id="stop97" />
      <stop
         offset="1"
         style="stop-color:#FFFFFF"
         id="stop99" />
    </linearGradient>
    <linearGradient
       id="linearGradient3273">
      <stop
         id="stop3275"
         offset="0"
         style="stop-color:#ffffff;stop-opacity:0.55035973;" />
      <stop
         id="stop3277-3"
         offset="1"
         style="stop-color:#ffffff;stop-opacity:0;" />
    </linearGradient>
    <clipPath
       clipPathUnits="userSpaceOnUse"
       id="clipPath27533">
      <rect
         style="fill:#e8b7d7;fill-opacity:1;stroke:none;stroke-width:1.73136938;stroke-miterlimit:4;stroke-dasharray:none;stroke-opacity:1"
         id="rect27535"
         width="73.863686"
         height="112.22136"
         x="50.951443"
         y="938.9306" />
    </clipPath>
    <linearGradient
       inkscape:collect="always"
       xlink:href="#a"
       id="linearGradient917"
       x1="95.870972"
       y1="-38.129028"
       x2="99.870972"
       y2="109.87097"
       gradientUnits="userSpaceOnUse" />
    <linearGradient
       inkscape:collect="always"
       xlink:href="#b"
       id="linearGradient925"
       x1="59.870972"
       y1="141.87097"
       x2="59.870972"
       y2="13.870973"
       gradientUnits="userSpaceOnUse" />
  </defs>
  <sodipodi:namedview
     pagecolor="#ffffff"
     bordercolor="#666666"
     borderopacity="1"
     objecttolerance="10"
     gridtolerance="10"
     guidetolerance="10"
     inkscape:pageopacity="0"
     inkscape:pageshadow="2"
     inkscape:window-width="1366"
     inkscape:window-height="706"
     id="namedview52"
     showgrid="true"
     inkscape:zoom="10.450895"
     inkscape:cx="80.115773"
     inkscape:cy="76.598177"
     inkscape:window-x="0"
     inkscape:window-y="0"
     inkscape:window-maximized="1"
     inkscape:current-layer="svg50"
     inkscape:snap-global="false">
    <inkscape:grid
       type="xygrid"
       id="grid909"
       spacingx="3.9999999"
       spacingy="3.9999999"
       empspacing="2" />
  </sodipodi:namedview>
  <linearGradient
     id="a"
     gradientUnits="userSpaceOnUse"
     x1="121.870972"
     x2="121.870972"
     y1="-34.455016"
     y2="101.929643">
    <stop
       offset="0"
       stop-color="#fff"
       id="stop2" />
    <stop
       offset="1"
       stop-color="#555"
       id="stop4" />
  </linearGradient>
  <linearGradient
     id="b"
     gradientTransform="matrix(1.0384874 0 0 .91306627 4.332511 8.824573)"
     gradientUnits="userSpaceOnUse"
     x1="46.048"
     x2="46.048"
     y1="128.01709"
     y2="16.6203">
    <stop
       offset="0"
       stop-color="#c7cdd7"
       id="stop7" />
    <stop
       offset="1"
       stop-color="#fff"
       id="stop9" />
  </linearGradient>
  <linearGradient
     id="c"
     gradientUnits="userSpaceOnUse"
     x1="59.871094"
     x2="95.871094"
     y1="53.871094"
     y2="53.871094">
    <stop
       offset="0"
       stop-color="#5ca524"
       id="stop12" />
    <stop
       offset="1"
       stop-color="#58a11e"
       stop-opacity=".986274"
       id="stop14" />
  </linearGradient>
  <linearGradient
     id="d"
     gradientUnits="userSpaceOnUse"
     x1="108.41882"
     x2="91.871094"
     y1="209.87097"
     y2="53.871094"
     xlink:href="#b">
    <stop
       offset="0"
       stop-color="#f2fdeb"
       id="stop17" />
    <stop
       offset="1"
       stop-color="#c8ffa5"
       id="stop19" />
  </linearGradient>
  <filter
     id="e"
     color-interpolation-filters="sRGB"
     height="1.306617"
     width="1.43589"
     x="-.217945"
     y="-.153309">
    <feGaussianBlur
       stdDeviation="3.1542391"
       id="feGaussianBlur22" />
  </filter>
  <linearGradient
     id="f"
     gradientUnits="userSpaceOnUse"
     x1="27.118645"
     x2="23.050846"
     y1="48"
     y2="22.779661">
    <stop
       offset="0"
       stop-color="#070707"
       id="stop25" />
    <stop
       offset="1"
       stop-color="#474747"
       id="stop27" />
  </linearGradient>
  <g
     id="g6541">
    <g
       id="g34"
       transform="translate(-1.870972 -2.129026)">
      <path
         id="path30"
         fill="url(#b)"
         d="m9.870972 25.870972h108v76h-108z" />
      <path
         id="path32"
         fill="url(#a)"
         d="m5.8709716 21.870974v4 16 4 16 4 16 4 15.999996 4h4 20.0000004 4 28 4 28 4 19.999998 4v-4-15.999996-4-16-4-16-4-16-4h-4-19.999998-4-28-4-28-4-20.0000004zm4 4h20.0000004v16h-20.0000004zm24.0000004 0h28v16h-28zm32 0h28v16h-28zm32 0h19.999998v16h-19.999998zm-88.0000004 20h20.0000004v16h-20.0000004zm24.0000004 0h28v16h-28zm32 0h28v16h-28zm32 0h19.999998v16h-19.999998zm-88.0000004 20h20.0000004v16h-20.0000004zm24.0000004 0h28v16h-28zm32 0h28v16h-28zm32 0h19.999998v16h-19.999998zm-88.0000004 20h20.0000004v15.999996h-20.0000004zm24.0000004 0h28v15.999996h-28zm32 0h28v15.999996h-28zm32 0h19.999998v15.999996h-19.999998z" />
    </g>
    <g
       id="g40"
       transform="translate(.129028 -2.129026)">
      <path
         sodipodi:nodetypes="cccccccccccccccccc"
         style="fill:url(#linearGradient917);fill-opacity:1"
         inkscape:connector-curvature="0"
         id="path36"
         d="m 27.871094,41.871094 v 4 l -1.22e-4,35.99988 v 4 h 4 60 4 v -4 l 1.22e-4,-35.99988 v -4 h -4 -60 z m 4,4 h 60 l -1.22e-4,35.99988 h -60 z" />
      <path
         sodipodi:nodetypes="ccccc"
         style="fill:url(#linearGradient925);fill-opacity:1"
         inkscape:connector-curvature="0"
         id="path38"
         d="m 31.870972,45.870974 v 36 l 60.000122,1.2e-4 v -36 z" />
    </g>
  </g>
  <rect
     style="opacity:1;fill:#a2a2a2;fill-opacity:1;stroke:none;stroke-width:4.5;stroke-linecap:round;stroke-linejoin:round;stroke-miterlimit:4;stroke-dasharray:none;stroke-dashoffset:0;stroke-opacity:1"
     id="rect927"
     width="27.999998"
     height="8.0000019"
     x="48"
     y="55.741943"
     rx="0.24187399"
     ry="0.116909" />
  <g
     id="g928"
     transform="matrix(0.79267884,0,0,0.79267884,11.268554,11.0105)">
    <path
       sodipodi:type="inkscape:offset"
       inkscape:radius="-0.88187361"
       inkscape:original="M 64 28 C 37.530166 28.000198 17.427734 44.389373 17.427734 64.271484 C 17.427734 84.153596 37.530166 99.999802 64 100 C 90.469832 99.9998 110.57227 83.610625 110.57227 63.728516 C 110.57227 43.846406 90.469832 28.0002 64 28 z M 64 33.400391 C 86.499041 33.400681 104.73799 47.100444 104.73828 64 C 104.73799 80.899556 86.499041 94.599319 64 94.599609 C 41.500959 94.599319 23.262006 80.899556 23.261719 64 C 23.262006 47.100444 41.500959 33.400681 64 33.400391 z "
       style="opacity:1;fill:#b50000;fill-opacity:1;stroke:none;stroke-width:5.06608868;stroke-linecap:round;stroke-linejoin:round;stroke-miterlimit:4;stroke-dasharray:none;stroke-dashoffset:0;stroke-opacity:1"
       id="path1186"
       d="m 64,28.882812 c -26.105821,1.96e-4 -45.689453,16.100992 -45.689453,35.388672 0,9.643841 4.859344,18.312428 13.017578,24.623047 C 39.486359,95.205151 50.94106,99.11709 64,99.117188 c 26.105819,-1.98e-4 45.68945,-16.100994 45.68945,-35.388672 0,-9.64384 -4.85934,-18.312428 -13.017575,-24.623047 C 88.51364,32.794849 77.058939,28.882911 64,28.882812 Z m 0,3.634766 c 11.42851,1.47e-4 21.791559,3.473841 29.335938,9.140625 C 100.88032,47.324987 105.62094,55.23297 105.62109,64 105.62094,72.76703 100.88032,80.675013 93.335938,86.341797 85.791559,92.008581 75.42851,95.482275 64,95.482422 52.57149,95.482275 42.208442,92.008581 34.664062,86.341797 27.119683,80.675013 22.379055,72.76703 22.378906,64 22.379055,55.23297 27.119683,47.324987 34.664062,41.658203 42.208442,35.991419 52.57149,32.517725 64,32.517578 Z" />
    <ellipse
       style="opacity:1;fill:#8fd0ff;fill-opacity:0.26102941;stroke:none;stroke-width:4.3911109;stroke-linecap:round;stroke-linejoin:round;stroke-miterlimit:4;stroke-dasharray:none;stroke-dashoffset:0;stroke-opacity:1"
       id="ellipse899"
       cx="64"
       cy="64"
       rx="41.542519"
       ry="31.203558" />
  </g>
</svg>
